public/icons/palette.svg

<svg width="19" height="19" viewBox="0 0 19 19" fill="none" xmlns="http://www.w3.org/2000/svg">
<path fill-rule="evenodd" clip-rule="evenodd" d="M5.74943 15.8749C0.874415 13.6249 -0.306851 3.15848 9.49937 2.74989C18.4999 2.37488 18.4993 13.6249 15.1243 13.6249C14.3397 13.6249 13.7547 13.5359 13.3194 13.3966C12.9982 13.2938 12.6374 13.0992 12.2659 12.8987C11.4539 12.4607 10.5901 11.9947 9.97285 12.3974C9.36966 12.791 9.07154 13.4108 9.87491 14.3749C12.2756 17.2557 7.49923 16.7499 5.74943 15.8749ZM12.8748 8.74988C13.4961 8.74988 13.9998 8.2462 13.9998 7.62488C13.9998 7.00356 13.4961 6.49988 12.8748 6.49988C12.2535 6.49988 11.7498 7.00356 11.7498 7.62488C11.7498 8.2462 12.2535 8.74988 12.8748 8.74988ZM8.74982 6.49988C8.74982 7.1212 8.24614 7.62488 7.62482 7.62488C7.0035 7.62488 6.49982 7.1212 6.49982 6.49988C6.49982 5.87856 7.0035 5.37488 7.62482 5.37488C8.24614 5.37488 8.74982 5.87856 8.74982 6.49988ZM6.12482 12.4999C6.74614 12.4999 7.24982 11.9962 7.24982 11.3749C7.24982 10.7536 6.74614 10.2499 6.12482 10.2499C5.5035 10.2499 4.99982 10.7536 4.99982 11.3749C4.99982 11.9962 5.5035 12.4999 6.12482 12.4999Z" fill="#475367"/>
</svg>

<svg xmlns="http://www.w3.org/2000/svg" width="19" height="19" fill="none"><path fill="#475367" fill-rule="evenodd" d="M5.75 15.875C.873 13.625-.308 3.158 9.5 2.75c9-.375 9 10.875 5.624 10.875-.784 0-1.37-.09-1.805-.228-.32-.103-.682-.298-1.053-.498-.812-.438-1.676-.904-2.293-.502-.603.394-.901 1.014-.098 1.978 2.4 2.88-2.376 2.375-4.126 1.5m7.125-7.125a1.125 1.125 0 1 0 0-2.25 1.125 1.125 0 0 0 0 2.25M8.75 6.5a1.125 1.125 0 1 1-2.25 0 1.125 1.125 0 0 1 2.25 0m-2.625 6a1.125 1.125 0 1 0 0-2.25 1.125 1.125 0 0 0 0 2.25" clip-rule="evenodd"/></svg>
